X:83
T: Der heimkehrende Soldat
N: Q0103
O: Mitteleuropa, Deutschland (DDR) , Sachsen, Priestewitz
N: Anhaengsel an der ersten Zeile; Vierte Zeile = Refrain.
R: Ballade, Ehe, Betrug
M: 4/4
L: 1/8
K: G
DD | G2B2B2B2 | B2ABc2d2 | B2z4
dc | B2B2B2d2 | d3ccB
cB | AAAAA2e2 | e3dd2
c2 | B2B2A2A2 | G2z4

